icons/bhi_opportunity-circle.svg

<svg xmlns="http://www.w3.org/2000/svg" viewBox="0 0 512 512" enable-background="new 0 0 512 512"><path fill="#010101" d="M256 511c-140.5 0-255.5-115-255.5-255.5s115-255.5 255.5-255.5 255.5 115 255.5 255.5-115 255.5-255.5 255.5zm0-470.5c-121.4 0-217.2 95.8-217.2 217.2s98 217.1 217.2 217.1 217.2-97.9 217.2-217.2-98-217.1-217.2-217.1zM385.9 240.6c-6.4-59.6-55.4-108.6-115-115v-27.7h-29.8v29.8c-59.6 6.4-108.6 55.4-115 115h-27.7v29.8h29.8c6.4 59.6 55.4 108.6 115 115v29.8h29.8v-29.8c59.6-6.4 108.6-55.4 115-115h29.8v-29.8h-31.9v-2.1zm-27.7 0h-44.7c-6.4-21.3-21.3-36.2-42.6-40.5v-44.7c44.7 6.4 80.9 42.6 87.3 85.2zm-115-85.2v44.7c-19.2 6.4-36.2 21.3-40.5 40.5h-44.7c6.4-42.6 40.5-78.8 85.2-85.2zm-85.1 115h44.7c4.3 19.2 21.3 36.2 40.5 40.5v44.7c-44.8-6.4-78.9-40.5-85.2-85.2zm112.8 85.2v-44.7c21.3-4.3 36.2-21.3 42.6-42.6h44.7c-6.4 46.8-42.6 80.9-87.3 87.3z"/></svg>

<?xml version="1.0" encoding="utf-8"?>
<!-- Generator: Adobe Illustrator 19.2.0, SVG Export Plug-In . SVG Version: 6.00 Build 0)  -->
<svg version="1.1" id="Layer_1" xmlns="http://www.w3.org/2000/svg" xmlns:xlink="http://www.w3.org/1999/xlink" x="0px" y="0px"
	 viewBox="0 0 512 512" enable-background="new 0 0 512 512" xml:space="preserve">
<g>
	<path fill="#010101" d="M256,511C115.5,511,0.5,396,0.5,255.5S115.5,0,256,0s255.5,115,255.5,255.5S396.5,511,256,511z M256,40.5
		c-121.4,0-217.2,95.8-217.2,217.2S136.8,474.8,256,474.8s217.2-97.9,217.2-217.2S375.2,40.5,256,40.5z"/>
</g>
<path fill="#010101" d="M385.9,240.6c-6.4-59.6-55.4-108.6-115-115V97.9h-29.8v29.8c-59.6,6.4-108.6,55.4-115,115H98.4v29.8h29.8
	c6.4,59.6,55.4,108.6,115,115v29.8H273v-29.8c59.6-6.4,108.6-55.4,115-115h29.8v-29.8h-31.9V240.6z M358.2,240.6h-44.7
	c-6.4-21.3-21.3-36.2-42.6-40.5v-44.7C315.6,161.8,351.8,198,358.2,240.6z M243.2,155.4v44.7c-19.2,6.4-36.2,21.3-40.5,40.5h-44.7
	C164.4,198,198.5,161.8,243.2,155.4z M158.1,270.4h44.7c4.3,19.2,21.3,36.2,40.5,40.5v44.7C198.5,349.2,164.4,315.1,158.1,270.4z
	 M270.9,355.6v-44.7c21.3-4.3,36.2-21.3,42.6-42.6h44.7C351.8,315.1,315.6,349.2,270.9,355.6z"/>
</svg>
